!!!OTL: 895. Kleiner Mann, grosse Frau.
!!!ODT: 1891
!!!ARE: Europa, Mitteleuropa, Deutschland, Schleswig - Holstein
!!!SCT: E0895
!!!TXL: @@DE
!!!YEM: Copyright 1995, estate of Helmut Schaffrath.
**kern	**text
*ICvox	*
*M3/4	*
*k[b-]	*
*F:	*
=1	=1
!LO:TX:a:t=Lustig.	!
!LO:TX:a:t=Aus Schleswig-Holſtein. 1891.	!
{4f	Es
4a	war
4cc	ein
=2	=2
4b-	klei-
8b-L	-ner
8eJ	.
4e}	Mann,
=3	=3
{2cc	he-
4dd	-juch-
=4	=4
2.cc}	-he!
=5	=5
{8ff	ei-
8ff	-ne
8ff	gro-
8ff	-ße
4ff	Frau
=6	=6
4ee	wollt
8eeL	er
8ddJ	.
4cc}	habn,
=7	=7
{8dd	nu-
8dd	-de,
8dd	nu-
8ff	-de,
8ee	nu-
8dd	-de
=8	=8
4cc	val-
8cc	-la-
8b-	-le-
4a}	-ra,
=9	=9
{4b-	hop-
4g	-ſa-
4cc	-ſa-
=10	=10
2f	-ſa.
4r}	.
==	==
!!!AGN: Ehestands - Lied, Spott
!!!ONB: ESAC (Essen Associative Code) Database: ERK2
!!!AMT: simple triple
!!!AIN: vox
!!!EED: Helmut Schaffrath
!!!EEV: 1.0
!!!GTL: Hochzeits- und Ehrstandslieder, nebst Nonnenklagen
!!!URL-scan: https://rosdok.uni-rostock.de/mcrviewer/recordIdentifier/rosdok_ppn745177662/iview2/phys_0690.iview2?x=193.8995864193107&y=1320.6164538939483&scale=0.7029437510502773&rotation=0&layout=singlePageLayout
!!!ENC: Anna Maria Matuszewska
!!!EEV: 2024/12/18
*-	*-
